icons/circle/48/openyahtzee.svg

<svg viewBox="0 0 48 48" xmlns="http://www.w3.org/2000/svg">
 <defs>
  <linearGradient id="linearGradient3764" x1="1" x2="47" gradientTransform="matrix(0 -1 1 0 -1.5e-6 48)" gradientUnits="userSpaceOnUse">
   <stop style="stop-color:#dd274a" offset="0"/>
   <stop style="stop-color:#e03858" offset="1"/>
  </linearGradient>
 </defs>
 <path d="m36.31 5c5.859 4.062 9.688 10.831 9.688 18.5 0 12.426-10.07 22.5-22.5 22.5-7.669 0-14.438-3.828-18.5-9.688 1.037 1.822 2.306 3.499 3.781 4.969 4.085 3.712 9.514 5.969 15.469 5.969 12.703 0 23-10.298 23-23 0-5.954-2.256-11.384-5.969-15.469-1.469-1.475-3.147-2.744-4.969-3.781zm4.969 3.781c3.854 4.113 6.219 9.637 6.219 15.719 0 12.703-10.297 23-23 23-6.081 0-11.606-2.364-15.719-6.219 4.16 4.144 9.883 6.719 16.219 6.719 12.703 0 23-10.298 23-23 0-6.335-2.575-12.06-6.719-16.219z" style="opacity:.05"/>
 <path d="m41.28 8.781c3.712 4.085 5.969 9.514 5.969 15.469 0 12.703-10.297 23-23 23-5.954 0-11.384-2.256-15.469-5.969 4.113 3.854 9.637 6.219 15.719 6.219 12.703 0 23-10.298 23-23 0-6.081-2.364-11.606-6.219-15.719z" style="opacity:.1"/>
 <path d="m31.25 2.375c8.615 3.154 14.75 11.417 14.75 21.13 0 12.426-10.07 22.5-22.5 22.5-9.708 0-17.971-6.135-21.12-14.75a23 23 0 0 0 44.875-7 23 23 0 0 0-16-21.875z" style="opacity:.2"/>
 <path d="m24 1c12.703 0 23 10.297 23 23s-10.297 23-23 23-23-10.297-23-23 10.297-23 23-23z" style="fill:url(#linearGradient3764)"/>
 <path d="m40.03 7.531c3.712 4.084 5.969 9.514 5.969 15.469 0 12.703-10.297 23-23 23-5.954 0-11.384-2.256-15.469-5.969 4.178 4.291 10.01 6.969 16.469 6.969 12.703 0 23-10.298 23-23 0-6.462-2.677-12.291-6.969-16.469z" style="opacity:.1"/>
 <g transform="translate(0 .008)">
  <g transform="translate(1,1)">
   <g style="opacity:.1">
    <path d="m15 11.996h17.996c1.656 0 3 1.344 3 3v17.996c0 1.656-1.344 3-3 3h-17.996c-1.66 0-3-1.344-3-3v-17.996c0-1.66 1.344-3 3-3"/>
    <path d="m27 24c0 1.656-1.344 3-3 3-1.66 0-3-1.344-3-3 0-1.66 1.34-3 3-3 1.656 0 3 1.34 3 3"/>
    <path d="m33 18c0 1.656-1.344 3-3 3-1.66 0-3-1.344-3-3 0-1.66 1.34-3 3-3 1.656 0 3 1.34 3 3"/>
    <path d="m21 30c0 1.656-1.344 3-3 3-1.66 0-3-1.344-3-3 0-1.66 1.34-3 3-3 1.656 0 3 1.34 3 3"/>
   </g>
  </g>
 </g>
 <g transform="translate(0 .008)">
  <path d="m15 11.996h17.996c1.656 0 3 1.344 3 3v17.996c0 1.656-1.344 3-3 3h-17.996c-1.66 0-3-1.344-3-3v-17.996c0-1.66 1.344-3 3-3" style="fill:#f9f9f9"/>
  <path transform="translate(0 -.008)" d="m30 15a3 3 0 0 0-3 3 3 3 0 0 0 3 3 3 3 0 0 0 3-3 3 3 0 0 0-3-3zm-12 0.01c-1.656 0-3 1.338-3 3 0 1.654 1.344 3 3 3 1.66 0 3-1.346 3-3 0-1.662-1.34-3-3-3zm6 6c-1.656 0-3 1.338-3 3 0 1.654 1.344 3 3 3 1.66 0 3-1.346 3-3 0-1.662-1.34-3-3-3zm-6 5.99a3 3 0 0 0-3 3 3 3 0 0 0 3 3 3 3 0 0 0 3-3 3 3 0 0 0-3-3zm12 0.01c-1.656 0-3 1.338-3 3 0 1.654 1.344 3 3 3 1.66 0 3-1.346 3-3 0-1.662-1.34-3-3-3z" style="fill:#333"/>
 </g>
</svg>

<svg xmlns="http://www.w3.org/2000/svg" viewBox="0 0 48 48">
 <defs>
  <linearGradient id="linearGradient3764" x1="1" x2="47" gradientUnits="userSpaceOnUse" gradientTransform="matrix(0,-1,1,0,-1.5e-6,47.999998)">
   <stop style="stop-color:#dd274a;stop-opacity:1"/>
   <stop offset="1" style="stop-color:#e03858;stop-opacity:1"/>
  </linearGradient>
 </defs>
 <g>
  <path d="m 36.31 5 c 5.859 4.062 9.688 10.831 9.688 18.5 c 0 12.426 -10.07 22.5 -22.5 22.5 c -7.669 0 -14.438 -3.828 -18.5 -9.688 c 1.037 1.822 2.306 3.499 3.781 4.969 c 4.085 3.712 9.514 5.969 15.469 5.969 c 12.703 0 23 -10.298 23 -23 c 0 -5.954 -2.256 -11.384 -5.969 -15.469 c -1.469 -1.475 -3.147 -2.744 -4.969 -3.781 z m 4.969 3.781 c 3.854 4.113 6.219 9.637 6.219 15.719 c 0 12.703 -10.297 23 -23 23 c -6.081 0 -11.606 -2.364 -15.719 -6.219 c 4.16 4.144 9.883 6.719 16.219 6.719 c 12.703 0 23 -10.298 23 -23 c 0 -6.335 -2.575 -12.06 -6.719 -16.219 z" style="opacity:0.05"/>
  <path d="m 41.28 8.781 c 3.712 4.085 5.969 9.514 5.969 15.469 c 0 12.703 -10.297 23 -23 23 c -5.954 0 -11.384 -2.256 -15.469 -5.969 c 4.113 3.854 9.637 6.219 15.719 6.219 c 12.703 0 23 -10.298 23 -23 c 0 -6.081 -2.364 -11.606 -6.219 -15.719 z" style="opacity:0.1"/>
  <path d="m 31.25 2.375 c 8.615 3.154 14.75 11.417 14.75 21.13 c 0 12.426 -10.07 22.5 -22.5 22.5 c -9.708 0 -17.971 -6.135 -21.12 -14.75 a 23 23 0 0 0 44.875 -7 a 23 23 0 0 0 -16 -21.875 z" style="opacity:0.2"/>
 </g>
 <g>
  <path d="m 24 1 c 12.703 0 23 10.297 23 23 c 0 12.703 -10.297 23 -23 23 -12.703 0 -23 -10.297 -23 -23 0 -12.703 10.297 -23 23 -23 z" style="fill:url(#linearGradient3764);fill-opacity:1"/>
 </g>
 <g>
  <path d="m 40.03 7.531 c 3.712 4.084 5.969 9.514 5.969 15.469 0 12.703 -10.297 23 -23 23 c -5.954 0 -11.384 -2.256 -15.469 -5.969 4.178 4.291 10.01 6.969 16.469 6.969 c 12.703 0 23 -10.298 23 -23 0 -6.462 -2.677 -12.291 -6.969 -16.469 z" style="opacity:0.1"/>
 </g>
 <g transform="translate(0,0.008)">
  <g>
   <g transform="translate(1,1)">
    <g style="opacity:0.1">
     <!-- color: #1ac8ef -->
     <g>
      <path d="m 15 11.996 17.996 0 c 1.656 0 3 1.344 3 3 l 0 17.996 c 0 1.656 -1.344 3 -3 3 l -17.996 0 c -1.66 0 -3 -1.344 -3 -3 l 0 -17.996 c 0 -1.66 1.344 -3 3 -3 m 0 0" style="fill:#000;fill-opacity:1;stroke:none;fill-rule:nonzero"/>
      <path d="m 27 24 c 0 1.656 -1.344 3 -3 3 -1.66 0 -3 -1.344 -3 -3 0 -1.66 1.34 -3 3 -3 1.656 0 3 1.34 3 3 m 0 0" style="fill:#000;fill-opacity:1;stroke:none;fill-rule:nonzero"/>
      <path d="m 33 18 c 0 1.656 -1.344 3 -3 3 -1.66 0 -3 -1.344 -3 -3 0 -1.66 1.34 -3 3 -3 1.656 0 3 1.34 3 3 m 0 0" style="fill:#000;fill-opacity:1;stroke:none;fill-rule:nonzero"/>
      <path d="m 21 30 c 0 1.656 -1.344 3 -3 3 -1.66 0 -3 -1.344 -3 -3 0 -1.66 1.34 -3 3 -3 1.656 0 3 1.34 3 3 m 0 0" style="fill:#000;fill-opacity:1;stroke:none;fill-rule:nonzero"/>
     </g>
    </g>
   </g>
  </g>
 </g>
 <g transform="translate(0,0.008)">
  <g>
   <!-- color: #1ac8ef -->
   <g>
    <path d="m 15 11.996 17.996 0 c 1.656 0 3 1.344 3 3 l 0 17.996 c 0 1.656 -1.344 3 -3 3 l -17.996 0 c -1.66 0 -3 -1.344 -3 -3 l 0 -17.996 c 0 -1.66 1.344 -3 3 -3 m 0 0" style="fill:#f9f9f9;fill-opacity:1;stroke:none;fill-rule:nonzero"/>
    <path d="M 30 15 A 3 3 0 0 0 27 18 A 3 3 0 0 0 30 21 A 3 3 0 0 0 33 18 A 3 3 0 0 0 30 15 z M 18 15.01 C 16.344 15.01 15 16.348 15 18.01 C 15 19.664 16.344 21.01 18 21.01 C 19.66 21.01 21 19.664 21 18.01 C 21 16.348 19.66 15.01 18 15.01 z M 24 21.01 C 22.344 21.01 21 22.348 21 24.01 C 21 25.664 22.344 27.01 24 27.01 C 25.66 27.01 27 25.664 27 24.01 C 27 22.348 25.66 21.01 24 21.01 z M 18 27 A 3 3 0 0 0 15 30 A 3 3 0 0 0 18 33 A 3 3 0 0 0 21 30 A 3 3 0 0 0 18 27 z M 30 27.01 C 28.344 27.01 27 28.348 27 30.01 C 27 31.664 28.344 33.01 30 33.01 C 31.66 33.01 33 31.664 33 30.01 C 33 28.348 31.66 27.01 30 27.01 z" transform="translate(0,-0.008)" style="fill:#333;fill-opacity:1;stroke:none;fill-rule:nonzero"/>
   </g>
  </g>
 </g>
</svg>
